X: 11858
T: Emergency Pants
R: jig
M: 6/8
K: Amixolydian
|:eae fed|edc Bcd|cBc AA/B/=c|BAF GFD|
EFE AEB|=cE^c dcB|Ace edc|1 BGE BB/c/d:|2 AEF GG/A/B||
|:FAd fdA|gdA fdA|eae fed|ef/e/d cBA|
FAd fdA|gdA f2 A|e2 e fed|1 edc GG/A/B:|2 BGE BB/c/d||

